packages/icons/src/run-ci-step.svg

<svg viewBox="0 0 40 41" xmlns="http://www.w3.org/2000/svg">
<path fill-rule="evenodd" clip-rule="evenodd" d="M4 7.75501C3.44771 7.75501 3 8.20273 3 8.75501V33.755C3 34.3073 3.44771 34.755 4 34.755H36C36.5523 34.755 37 34.3073 37 33.755V8.75501C37 8.20273 36.5523 7.75501 36 7.75501H4ZM4 11.5255V8.75501L36 8.75501V11.5255H4ZM4 12.5255H36V33.755H4V12.5255ZM10.7546 15.8247C10.5169 15.6841 10.2103 15.7628 10.0697 16.0005C9.92914 16.2381 10.0079 16.5448 10.2455 16.6854L17.8904 21.2071L10.2468 25.6983C10.0087 25.8382 9.9291 26.1447 10.069 26.3827C10.2089 26.6208 10.5153 26.7004 10.7534 26.5605L18.397 22.0693C19.0538 21.6834 19.0551 20.7342 18.3995 20.3464L10.7546 15.8247ZM21.8941 25.755C21.618 25.755 21.3941 25.9789 21.3941 26.255C21.3941 26.5312 21.618 26.755 21.8941 26.755H29.5001C29.7762 26.755 30.0001 26.5312 30.0001 26.255C30.0001 25.9789 29.7762 25.755 29.5001 25.755H21.8941Z" fill="#4F5162"/>
</svg>

<svg viewBox="0 0 40 41" xmlns="http://www.w3.org/2000/svg"><path clip-rule="evenodd" d="m4 7.75501c-.55229 0-1 .44772-1 1v24.99999c0 .5523.44771 1 1 1h32c.5523 0 1-.4477 1-1v-24.99999c0-.55228-.4477-1-1-1zm0 3.77049v-2.77049h32v2.77049zm0 1h32v21.2295h-32zm6.7546 3.2992c-.2377-.1406-.5443-.0619-.6849.1758-.14056.2376-.0618.5443.1758.6849l7.6449 4.5217-7.6436 4.4912c-.2381.1399-.3177.4464-.1778.6844.1399.2381.4463.3177.6844.1778l7.6436-4.4912c.6568-.3859.6581-1.3351.0025-1.7229zm11.1395 9.9303c-.2761 0-.5.2239-.5.5 0 .2762.2239.5.5.5h7.606c.2761 0 .5-.2238.5-.5 0-.2761-.2239-.5-.5-.5z" fill="#4f5162" fill-rule="evenodd"/></svg>
